tools/download-figma-icons/icons/outlined-medium/contract-amendents.svg

<svg width="24" height="24" viewBox="0 0 24 24" fill="none" xmlns="http://www.w3.org/2000/svg">
<path d="M23.7819 9.97044L22.2819 8.47082C22.2122 8.40055 22.1293 8.34476 22.0379 8.3067C21.9465 8.26863 21.8485 8.24903 21.7494 8.24903C21.6504 8.24903 21.5524 8.26863 21.461 8.3067C21.3696 8.34476 21.2867 8.40055 21.217 8.47082L20.9995 8.68827V1.50509C20.9995 1.10737 20.8414 0.725932 20.5601 0.444699C20.2788 0.163466 19.8973 0.00547041 19.4995 0.00547041H8.99977C8.9425 -0.00182347 8.88454 -0.00182347 8.82728 0.00547041L8.75978 0.00547041L8.66978 0.0429609H8.61728C8.58386 0.0604933 8.55348 0.0832777 8.52728 0.110444L8.44479 0.207919L3.22492 6.96371L3.14992 7.05368C3.14992 7.05368 3.14992 7.05368 3.14992 7.10617C3.14711 7.13359 3.14711 7.16123 3.14992 7.18865C3.13059 7.21077 3.11535 7.23616 3.10492 7.26363C3.10492 7.26363 3.10492 7.33111 3.10492 7.36111C3.10131 7.39099 3.10131 7.4212 3.10492 7.45108L2.99992 7.50357V22.4998C2.99992 22.8975 3.15795 23.2789 3.43925 23.5602C3.72055 23.8414 4.10207 23.9994 4.49989 23.9994H19.4995C19.8973 23.9994 20.2788 23.8414 20.5601 23.5602C20.8414 23.2789 20.9995 22.8975 20.9995 22.4998V13.8395L23.7819 11.0277C23.9216 10.8872 24 10.6971 24 10.4991C24 10.301 23.9216 10.1109 23.7819 9.97044ZM20.9995 11.71L19.4995 13.2096L14.7071 18.0759L13.9571 18.3233L14.1746 17.656L19.4995 12.3099L20.9995 10.8102L21.7494 10.0604L22.1919 10.5028L20.9995 11.71ZM8.24979 2.93723V5.44159L5.74485 6.15391L8.24979 2.93723ZM19.4995 22.4998H4.49989V8.06593L9.20227 6.75376C9.36449 6.7084 9.50672 6.60977 9.60603 6.47375C9.70535 6.33773 9.75598 6.17224 9.74975 6.00395V1.50509H19.4995V10.1879L12.9672 16.7187C12.8866 16.8019 12.8251 16.9017 12.7872 17.0112L12.2097 18.7507H10.8072L9.53226 17.4685C9.40146 17.3388 9.2275 17.2618 9.04353 17.2521C8.85957 17.2424 8.67847 17.3008 8.53478 17.4161L6.65983 18.9157C6.5053 19.0394 6.40596 19.2192 6.38348 19.4158C6.361 19.6125 6.41721 19.81 6.53983 19.9654C6.60968 20.0538 6.69853 20.1253 6.79981 20.1746C6.90108 20.2239 7.01217 20.2498 7.12482 20.2503C7.29399 20.2494 7.45786 20.1912 7.58981 20.0854L8.94727 19.0057L9.96725 20.0329C10.0373 20.1024 10.1204 20.1574 10.2118 20.1947C10.3032 20.232 10.401 20.2509 10.4997 20.2503H12.7497C12.8502 20.2501 12.9497 20.2297 13.0422 20.1904L15.3446 19.4405C15.4585 19.4076 15.5619 19.3456 15.6446 19.2606L19.4995 15.3616V22.4998Z" fill="black"/>
<path d="M6.74983 10.5032H17.2496C17.4485 10.5032 17.6392 10.4241 17.7799 10.2835C17.9205 10.1428 17.9995 9.95208 17.9995 9.75317C17.9995 9.55426 17.9205 9.3635 17.7799 9.22285C17.6392 9.0822 17.4485 9.00319 17.2496 9.00319H6.74983C6.55092 9.00319 6.36016 9.0822 6.21951 9.22285C6.07886 9.3635 5.99985 9.55426 5.99985 9.75317C5.99985 9.95208 6.07886 10.1428 6.21951 10.2835C6.36016 10.4241 6.55092 10.5032 6.74983 10.5032Z" fill="black"/>
<path d="M14.9996 5.25426H17.2496C17.4485 5.25426 17.6392 5.17525 17.7799 5.0346C17.9205 4.89395 17.9995 4.70319 17.9995 4.50428C17.9995 4.30537 17.9205 4.11461 17.7799 3.97396C17.6392 3.83331 17.4485 3.7543 17.2496 3.7543H14.9996C14.8007 3.7543 14.61 3.83331 14.4693 3.97396C14.3287 4.11461 14.2496 4.30537 14.2496 4.50428C14.2496 4.70319 14.3287 4.89395 14.4693 5.0346C14.61 5.17525 14.8007 5.25426 14.9996 5.25426Z" fill="black"/>
<path d="M11.9997 13.5026C12.1986 13.5026 12.3894 13.4236 12.53 13.2829C12.6707 13.1423 12.7497 12.9515 12.7497 12.7526C12.7497 12.5537 12.6707 12.3629 12.53 12.2223C12.3894 12.0816 12.1986 12.0026 11.9997 12.0026H6.74983C6.55092 12.0026 6.36016 12.0816 6.21951 12.2223C6.07886 12.3629 5.99985 12.5537 5.99985 12.7526C5.99985 12.9515 6.07886 13.1423 6.21951 13.2829C6.36016 13.4236 6.55092 13.5026 6.74983 13.5026H11.9997Z" fill="black"/>
</svg>

<svg xmlns="http://www.w3.org/2000/svg" width="24" height="24" fill="none" viewBox="0 0 24 24"><path fill="currentColor" d="m23.782 9.97-1.5-1.5a.75.75 0 0 0-1.065 0L21 8.689V1.505a1.5 1.5 0 0 0-1.5-1.5H9a.7.7 0 0 0-.173 0H8.76l-.09.038h-.053a.4.4 0 0 0-.09.067l-.082.098-5.22 6.756-.075.09v.052a.4.4 0 0 0 0 .083.3.3 0 0 0-.045.075v.097a.4.4 0 0 0 0 .09L3 7.504V22.5A1.5 1.5 0 0 0 4.5 24h15a1.5 1.5 0 0 0 1.5-1.5v-8.66l2.782-2.812a.75.75 0 0 0 0-1.058M21 11.71l-1.5 1.5-4.793 4.866-.75.247.218-.667L19.5 12.31l1.5-1.5.75-.75.442.443zM8.25 2.937v2.505l-2.505.712zM19.5 22.5h-15V8.066l4.702-1.312a.75.75 0 0 0 .548-.75V1.505h9.75v8.683l-6.533 6.53a.8.8 0 0 0-.18.293l-.577 1.74h-1.403l-1.275-1.283a.75.75 0 0 0-.997-.052l-1.875 1.5a.75.75 0 0 0 .465 1.334.75.75 0 0 0 .465-.165l1.357-1.08 1.02 1.028a.75.75 0 0 0 .533.217h2.25q.152 0 .292-.06l2.303-.75a.7.7 0 0 0 .3-.18l3.855-3.898z"/><path fill="currentColor" d="M6.75 10.503h10.5a.75.75 0 0 0 0-1.5H6.75a.75.75 0 1 0 0 1.5M15 5.254h2.25a.75.75 0 0 0 0-1.5H15a.75.75 0 0 0 0 1.5m-3 8.249a.75.75 0 1 0 0-1.5H6.75a.75.75 0 1 0 0 1.5z"/></svg>
